dist/svgs/copy.svg

<!-- Generated by IcoMoon.io -->
<svg version="1.1" xmlns="http://www.w3.org/2000/svg" width="24" height="24" viewBox="0 0 24 24">
<title>copy</title>
<path d="M22 7h-5v-5c0-0.6-0.4-1-1-1h-14c-0.6 0-1 0.4-1 1v14c0 0.6 0.4 1 1 1h5v5c0 0.6 0.4 1 1 1h14c0.6 0 1-0.4 1-1v-14c0-0.6-0.4-1-1-1zM3 3h12v12h-12v-12zM21 21h-12v-4h7c0.6 0 1-0.4 1-1v-7h4v12z"></path>
</svg>

<svg xmlns="http://www.w3.org/2000/svg" width="24" height="24" viewBox="0 0 24 24"><title>copy</title><path d="M22 7h-5V2c0-.6-.4-1-1-1H2c-.6 0-1 .4-1 1v14c0 .6.4 1 1 1h5v5c0 .6.4 1 1 1h14c.6 0 1-.4 1-1V8c0-.6-.4-1-1-1zM3 3h12v12H3V3zm18 18H9v-4h7c.6 0 1-.4 1-1V9h4v12z"/></svg>
